X: 1236
T: Jim Moore's Fancy
M:C|
R:Reel
B:O'Neill's 1236
N:Collected by F. O'Neill
Z:Transcribed by Trish O'Neil
K:A
ABAG ABcd|efed efg2|G2BG dGBG|AcBA GEDG|
ABAG ABcd|efed efg2|afgf egfa|gedB TBAA2||
a2bga2bg|ac'ba geef|g2afg2af|gbag gfed|
agbg agbg|ac'ba geef|gfed (3efg fa|gedB TBAA2||


